X:1
T:Title
%%score { ( 1 3 ) | 2 }
L:1/8
M:4/4
K:F
V:1 treble nm="Grand Piano"
V:3 treble 
V:2 bass 
V:1
 z4 z2[Q:1/4=94] F>G | A>A AA [Fc][FA][EG][EA] | F6 E>F | [EG]>[EG] [EG][EA] [EB][EB] [Ac]>[GB] | %4
[M:3/4] A6 |[M:1/4] A>c |[M:4/4] [Fd]>[Fd] [Fd][Fd] c2 AA |[M:3/4] [GB]>[GB] [GB][GB] A2 | %8
[M:1/4] F>G |[M:4/4] Acc[Fd] [Fc][CFA][B,EG][CEA] |[M:3/4] [A,F]6 |[M:1/4] [CFA]>[CFA] | %12
[M:4/4] [EG]6[K:bass][K:treble] z2 | [CFA]6 [CFA]>[CFA] | [EG-]4 G2 z2 |[M:3/4] [Ec]6 | %16
[M:1/4] [FA]>[Fc] |[M:4/4] [Fd]>[Fd] [Fd][Fd] c2 AA |[M:3/4] [GB]>[GB] [GB][GB] A2 |[M:1/4] F>G | %20
[M:4/4] Acc[Fd] [Fc][CFA][B,EG][CEA] |[M:7/4] [A,F]6 z2 z2 z4 |] %22
V:2
 z4 z2 [F,A,]>[F,B,F] | [F,CF]>[F,CF] [F,CF][F,CF] [C,A,][C,C][C,B,][C,C] | %2
 [F,A,]6 [G,B,C]>[F,A,C] | [C,B,]>[C,B,] [C,B,][C,A,] [C,G,][C,C] [C,C]>[C,C] |[M:3/4] [F,CF]6 | %5
[M:1/4] [F,CF]>[F,A,F] |[M:4/4] [B,,B,]>[B,,B,] [B,,B,][B,,B,] [F,A,F]2 [F,CF][F,CF] | %7
[M:3/4] [C,B,]>[C,C] [C,C][C,C] [F,CF]2 |[M:1/4] [F,A,]>[K:treble][F,B,F] | %9
[M:4/4] [G,CF][K:bass][F,A,F][F,A,F][B,,B,] [C,A,]C,C,C, |[M:3/4] F,6 |[M:1/4] F,>F, | %12
[M:4/4] C,>C, C,B,, C,C, C,>C, | F,6 F,>F, | G,>G, G,G, [G,=B,][K:treble][G,CF][G,CF][G,B,F] | %15
[M:3/4][K:bass] [C,C]6 |[M:1/4] [F,C]>[F,A,] | %17
[M:4/4] [B,,B,]>[B,,B,] [B,,B,][B,,B,] [F,A,F]2 [F,CF][F,CF] | %18
[M:3/4] [C,B,]>[C,C] [C,C][C,C] [F,CF]2 |[M:1/4] [F,A,]>[K:treble][F,B,F] | %20
[M:4/4] [G,CF][K:bass][F,A,F][F,A,F][B,,B,] [C,A,]C,C,C, |[M:7/4] F,6 z2 z2 z4 |] %22
V:3
 x8 | x8 | x8 | x8 |[M:3/4] x6 |[M:1/4] x2 |[M:4/4] x8 |[M:3/4] x6 |[M:1/4] x2 |[M:4/4] x8 | %10
[M:3/4] x6 |[M:1/4] x2 |[M:4/4] B,>[K:bass]B, B,B, B,[B,C][K:treble] [A,DF]>[CEG] | x8 | %14
 C>C CC FA=BG |[M:3/4] x6 |[M:1/4] x2 |[M:4/4] x8 |[M:3/4] x6 |[M:1/4] x2 |[M:4/4] x8 | %21
[M:7/4] x14 |] %22

